X:1
T:Title
L:1/8
M:6/8
I:linebreak $
K:D
V:1 treble nm="ddle" snm="ddle"
V:1
 g |: f2 d A2 F2 |"G" G3 B2 B |"D" A2 d c2 d | e3 efg |"D" fed A2 F2 | G3 BcB | A2 d2 c2 |$ %8
 d3 d2 g2 :|1 d3 d2 f | f2 f fed | e2 e efg | a3- a2 f x | gag gfe |$ fgf fed |1 efe efg | %16
 a3 a2 f :|2 efe efg | a3 a2 g ||2 efe edc | d6 |] %21
